X:40
T:Zöld erdőben terem a mérges kígyó
M:4/4
L:1/4
K:D
DFBA | ^GABA | EFDz |
DFBA | ^GABA | EFDz |
ffed | edcB | BGE2 |
cBAd | cBAE | FD D2 |

